X:1
T: Ferry Bridge
C:
R:Reel
Q: 232
K:D
M:4/4
L:1/8
|:AG|((3FED) A,D FA dF|((3GFE) ((3FED) CE AG|FA df ge fd|((3efe) ((3dcB) ((3ABA) ((3GFE)|
FD A,D FA dA|GF ED CE AG|FA df eA Bc|1d2 f2 d2:|2d2 f2 d4|
|:cd ef gf ge|de fg af df|((3gag) eg ((3fgf) df|((3efe) ((3dcB) ((3ABA) ((3GFE)|
FA, DF AD FA|GF ED CB AG|Fd AF Gg ec|1d2 f2 d4:|2d2 f2 d2||
